packages/icons/src/components/Logo/assets/dark/debian.svg

<svg width="20" height="20" viewBox="0 0 20 20" fill="none" xmlns="http://www.w3.org/2000/svg">
<path d="M9.81305 0.142578C9.65408 0.231468 9.49624 0.300708 9.34723 0.405273C9.95169 0.261074 9.92299 0.464256 10.5406 0.382812C10.3243 0.414314 10.0618 0.499765 10.1026 0.532715C10.7932 0.612752 10.8991 0.319408 11.5381 0.532227L11.4976 0.34375C12.3851 0.664213 12.5712 0.609545 13.5357 1.12109C13.8745 1.13743 13.9083 0.912919 14.42 1.12109C14.5097 1.27894 14.3996 1.30832 15.0274 1.68213C15.0975 1.65428 14.9026 1.47641 14.7481 1.33496C16.0111 2.01029 17.3841 3.44958 17.8028 4.98975C17.411 4.26739 17.7621 5.35837 17.6275 5.30176C17.8021 5.77291 17.9452 6.26001 18.0338 6.7627C17.9177 6.35027 17.665 5.35467 17.2217 4.7124C17.1856 5.12697 16.6504 4.42655 16.9429 5.33887C17.1659 5.6619 16.988 5.01136 17.2628 5.58545C17.267 5.85836 17.3712 6.12966 17.4317 6.48535C17.3377 6.4693 17.222 6.09223 17.1529 6.19727C17.2482 6.64435 17.4051 6.87756 17.4649 6.91211C17.4343 6.98698 17.355 6.84268 17.3497 7.14697C17.3862 7.84669 17.5458 7.55217 17.6212 7.58496C17.5448 7.92964 17.2364 8.33562 17.3887 8.92871C17.345 8.74914 17.2598 8.56813 17.1949 8.39795C17.1348 8.90428 17.3066 9.00299 17.0728 9.6167C17.2414 9.06348 17.2233 8.56432 17.0645 8.80469C17.1347 9.59097 16.4424 10.1947 16.5172 10.6919L16.316 10.4146C15.7707 11.2052 16.3031 10.8502 15.9317 11.4492C16.0678 11.2139 15.8604 11.3519 16.0377 11.0854C15.9199 11.0924 15.5128 11.5862 15.1402 11.8765C13.675 13.051 11.9258 13.2043 10.2325 12.5718C10.2309 12.5731 10.2301 12.5751 10.2291 12.5767C10.24 12.536 10.2292 12.492 10.1114 12.4126C8.67606 11.3125 7.82762 10.3774 8.12213 8.21289C8.34093 8.04745 8.39926 7.1449 8.90143 6.82861C9.20756 6.15217 10.125 5.52867 11.1055 5.51318C12.1065 5.45808 12.9512 6.04724 13.3755 6.60303C12.603 5.88314 11.3387 5.66445 10.2603 6.19824C9.15771 6.69413 8.50389 7.90849 8.59918 9.11768C8.64006 9.05763 8.67614 9.09456 8.69586 8.9458C8.66229 11.2959 11.2288 13.0181 13.0762 12.1489L13.0982 12.1978C13.8472 11.9934 13.7505 11.8246 14.2403 11.4883C14.2021 11.5672 13.9104 11.7685 14.084 11.7725C14.3223 11.7092 15.0668 11.0167 15.4327 10.6914C15.6005 10.3294 15.3438 10.4957 15.5782 10.0405L15.8643 9.89746C16.0235 9.43716 16.2 9.17701 16.1802 8.64111L16.0128 8.99365C16.2588 8.24881 16.1168 7.43796 16.1514 6.73682L16.0831 6.71826C16.0229 4.95435 14.4983 3.07955 13.1412 2.44531C11.9716 1.90499 10.1709 1.81228 9.33893 2.21924C9.45362 2.11791 9.90956 2.0752 9.77252 1.99707C8.47003 2.12653 8.76058 2.4515 7.76227 2.70654C7.48841 2.971 8.56155 2.49457 7.98395 2.8374C7.44847 2.98507 7.19878 2.74388 6.40533 3.56494C6.47596 3.67927 6.90907 3.22744 6.54791 3.68115C5.80213 3.58857 4.19158 5.38748 3.84967 5.98389L4.02838 6.01465C3.73479 6.75004 3.349 7.21912 3.29645 7.65967C3.22064 8.74314 2.84234 10.7187 3.36774 11.3262L3.31696 11.833C3.38906 11.9769 3.44315 12.1238 3.53278 12.2588L3.41608 12.2681C3.96876 14.0113 4.00959 12.3007 4.73932 14.1113C4.63347 14.0757 4.52629 14.0368 4.37213 13.8286C4.35396 13.9876 4.59697 14.4639 4.8858 14.8354L4.76373 14.9751C4.92455 15.2672 5.07257 15.3316 5.18414 15.4336C4.58371 15.1059 5.7411 16.5133 5.84576 16.6929L5.93805 16.5288C5.92486 16.765 6.10734 17.07 6.45026 17.4932L6.7359 17.4819C6.85356 17.7144 7.28354 18.1343 7.5445 18.1543L7.37116 18.3809C8.02621 18.5883 7.68952 18.656 8.49469 18.9409L8.33209 18.6538C8.74259 19.0101 8.86966 19.3218 9.44928 19.5947C10.2527 19.8748 10.3593 19.7642 11.1841 20C10.485 19.9797 9.6631 19.9872 9.11041 19.7896C5.33966 18.7683 1.88996 14.3449 2.14215 9.78906C2.08408 8.86687 2.23402 7.71445 2.08063 7.48438C2.29621 6.78248 2.54556 5.92626 3.04791 4.90771C3.01181 4.83996 3.13061 5.1071 3.3858 4.67236C3.54071 4.33211 3.66707 3.95713 3.86237 3.62646L3.96295 3.60303C4.06364 3.01958 5.32439 2.12485 5.69977 1.67432L5.72565 1.84619C6.54464 1.0783 8.00398 0.563396 8.82575 0.196777C8.60998 0.435599 9.30922 0.173192 9.81305 0.142578Z" fill="#A80030"/>
<path d="M8.3692 11.3662C8.5448 11.4049 9.14532 12.3414 9.59479 12.4937C9.32905 12.2807 9.12318 12.0098 8.93268 11.731C9.29174 12.1437 9.72872 12.4808 10.2056 12.7041C10.1925 12.6543 10.2132 12.621 10.2252 12.5879C10.2216 12.6684 10.5551 12.9252 10.8057 13.0542C11.4508 13.2926 12.1804 13.302 12.7545 13.2808C11.5137 13.7997 9.14441 12.7539 8.3692 11.3662Z" fill="#A80030"/>
<path d="M10.2252 12.5879C10.2254 12.5835 10.2268 12.58 10.2291 12.5767C10.228 12.5805 10.2265 12.5841 10.2252 12.5879Z" fill="#A80030"/>
<path d="M7.95172 11.0215C8.22521 11.5495 8.3737 11.711 8.57379 12.1016C8.29569 11.8703 8.12264 11.5497 7.90485 11.2539L7.95172 11.0215Z" fill="#A80030"/>
<path d="M8.2066 10.5674C8.28295 10.7203 8.35111 10.874 8.46637 11.0015L8.56842 11.3018C8.42919 11.067 8.27963 10.8361 8.2066 10.5674Z" fill="#A80030"/>
<path d="M17.5772 9.021C17.4887 9.70112 17.2776 10.3726 16.9512 10.9863C17.2467 10.4047 17.4396 9.7771 17.5289 9.14307L17.5772 9.021Z" fill="#A80030"/>
<path d="M12.3887 10.5244C12.2921 10.6162 12.1835 10.7104 12.064 10.8037C11.6314 10.7371 11.2375 10.571 11.5689 10.5664C11.8451 10.5917 12.1194 10.5904 12.3887 10.5244Z" fill="#A80030"/>
<path d="M13.7393 9.24414C13.6886 9.55247 13.5445 9.85067 13.3472 10.123C13.3711 9.8892 12.797 10.2244 13.463 9.38623C13.405 9.62247 12.844 10.244 13.4634 9.854C13.5757 9.65378 13.6951 9.46391 13.7393 9.24414Z" fill="#A80030"/>
<path d="M13.8336 8.23438C13.8865 8.00666 14.044 7.81833 14.004 8.41504C13.9442 8.65491 13.8953 8.26645 13.8336 8.23438Z" fill="#A80030"/>
<path d="M2.14362 5.7998C2.10398 5.98418 2.08528 6.17558 1.98151 6.49414C2.01165 6.24479 1.85685 6.16643 2.14362 5.7998Z" fill="#A80030"/>
<path d="M2.51129 4.28223C2.50818 4.47988 2.84363 4.08632 2.60211 4.63037C2.15164 4.94539 2.5628 4.76006 2.51129 4.28223Z" fill="#A80030"/>
<path d="M10.6568 0.371582L10.5406 0.382812L10.6656 0.356445L10.6568 0.371582Z" fill="#A80030"/>
<path d="M10.3121 0.257812C10.9026 0.274591 10.8589 0.314039 10.6656 0.356445C10.6944 0.314214 10.4889 0.289532 10.3121 0.257812Z" fill="#A80030"/>
<path d="M11.1661 0C10.9284 0.0540184 10.6016 0.0170606 10.3775 0.0991211L10.2437 0.0805664C10.5481 0.0413115 10.8564 0.0259932 11.1661 0Z" fill="#A80030"/>
</svg>

<svg xmlns="http://www.w3.org/2000/svg" width="20" height="20" fill="none" viewBox="0 0 20 20">
    <path fill="#a80030" d="M9.813.143C9.654.23 9.496.3 9.347.405c.605-.144.576.06 1.194-.022-.217.031-.48.117-.438.15.69.08.796-.214 1.435 0l-.04-.19c.887.321 1.073.267 2.038.778.338.016.372-.208.884 0 .09.158-.02.187.607.561.07-.028-.124-.206-.279-.347 1.263.675 2.636 2.115 3.055 3.655-.392-.723-.04.368-.175.312.174.47.317.958.406 1.46-.116-.412-.369-1.407-.812-2.05-.036.415-.572-.285-.28.627.224.323.046-.328.32.246.005.273.11.545.17.9-.094-.016-.21-.393-.28-.288.096.447.253.68.313.715-.03.075-.11-.07-.115.235.036.7.196.405.271.438-.076.345-.385.75-.232 1.344-.044-.18-.13-.36-.194-.531-.06.506.112.605-.122 1.219.168-.554.15-1.053-.009-.812.07.786-.622 1.39-.547 1.887l-.201-.277c-.545.79-.013.435-.384 1.034.136-.235-.072-.097.106-.364-.118.007-.525.501-.898.791-1.465 1.175-3.214 1.328-4.908.696l-.003.005c.011-.041 0-.085-.118-.164-1.435-1.1-2.283-2.036-1.989-4.2.219-.166.277-1.068.78-1.384.306-.677 1.223-1.3 2.204-1.316 1-.055 1.845.534 2.27 1.09-.773-.72-2.037-.939-3.116-.405-1.102.496-1.756 1.71-1.66 2.92.04-.06.076-.023.096-.172-.034 2.35 2.533 4.072 4.38 3.203l.022.049c.75-.205.652-.373 1.142-.71-.038.08-.33.28-.156.285.238-.064.983-.756 1.349-1.082.168-.362-.09-.195.145-.65l.286-.144c.16-.46.336-.72.316-1.256l-.167.353c.246-.745.104-1.556.138-2.257l-.068-.019c-.06-1.764-1.585-3.638-2.942-4.273-1.17-.54-2.97-.633-3.802-.226.115-.101.57-.144.434-.222-1.303.13-1.012.454-2.01.71-.275.264.799-.212.221.13-.536.148-.785-.093-1.579.728.071.114.504-.338.143.116-.746-.092-2.356 1.706-2.698 2.303l.178.03c-.293.736-.679 1.205-.732 1.646-.075 1.083-.454 3.059.072 3.666l-.051.507c.072.144.126.29.216.426l-.117.01c.553 1.742.594.032 1.323 1.842-.106-.035-.213-.074-.367-.282-.018.159.225.635.514 1.006l-.122.14c.16.292.309.357.42.459-.6-.328.557 1.08.662 1.259l.092-.164c-.013.236.17.541.512.964l.286-.011c.118.232.548.652.809.672l-.174.227c.655.207.319.275 1.124.56l-.163-.287c.41.356.538.668 1.117.94.804.28.91.17 1.735.406-.699-.02-1.52-.013-2.074-.21-3.77-1.022-7.22-5.445-6.968-10-.058-.923.092-2.076-.061-2.306.215-.702.465-1.558.967-2.576-.036-.068.083.2.338-.236.155-.34.281-.715.476-1.046l.101-.023c.1-.583 1.361-1.478 1.737-1.929l.026.172c.819-.768 2.278-1.283 3.1-1.65-.216.24.483-.023.987-.053"/>
    <path fill="#a80030" d="M8.37 11.366c.175.039.775.975 1.225 1.128-.266-.213-.472-.484-.662-.763.359.413.796.75 1.273.973-.013-.05.007-.083.02-.116-.004.08.33.337.58.466.645.239 1.374.248 1.949.227-1.241.519-3.61-.527-4.386-1.915m1.856 1.222.004-.011zm-2.273-1.566c.273.527.422.689.622 1.08-.278-.232-.451-.552-.67-.848zm.255-.455c.076.153.144.307.26.434l.101.3c-.139-.234-.288-.465-.361-.734m9.37-1.546c-.088.68-.3 1.352-.626 1.965a5.9 5.9 0 0 0 .578-1.843zm-5.188 1.503a4 4 0 0 1-.325.28c-.433-.067-.826-.233-.495-.238.276.026.55.024.82-.042m1.351-1.28a2.1 2.1 0 0 1-.393.879c.024-.234-.55.101.116-.737-.058.236-.619.858 0 .468.113-.2.232-.39.276-.61m.095-1.01c.053-.227.21-.416.17.181-.06.24-.109-.149-.17-.18M2.144 5.8c-.04.184-.059.376-.162.694.03-.25-.125-.328.162-.694m.367-1.518c-.003.198.333-.196.091.348-.45.315-.04.13-.09-.348m8.145-3.91-.116.01.125-.026zm-.345-.114c.59.017.547.056.354.098.028-.042-.177-.066-.354-.098M11.166 0c-.238.054-.564.017-.789.1l-.133-.02c.304-.039.612-.054.922-.08"/>
</svg>
